X: 13
M:3/4
L:1/8
K:G
"Moderato"G>A|B2 B2 B>c|B2 A2 Bd|e2 A2 A>B|A4 G>A|
=f3 g f2|e2 d2 eg|d2 ed cB|B2 A2 G>A|

